packages/icons/svg/Outline/eye-off-2.svg

<svg fill="none" height="24" viewBox="0 0 24 24" width="24" xmlns="http://www.w3.org/2000/svg"><path clip-rule="evenodd" d="m17.8091 13.395c1.705-1.417 2.89-3.44202 3.183-5.77102.069-.547-.319-1.047-.868-1.116-.54-.074-1.048.319-1.116.867-.439 3.49202-3.452 6.12502-7.008 6.12502-3.55603 0-6.56903-2.633-7.00803-6.12502-.068-.548-.578-.937-1.117-.867-.548.069-.936.569-.867 1.116.293 2.329 1.478 4.35402 3.183 5.77102l-2.312 2.312c-.389.389-.389 1.025 0 1.414.388.389 1.025.389 1.414 0l2.603-2.603c.954.482 2.001.8 3.10403.921v3.561c0 .55.45 1 1 1s1-.45 1-1v-3.561c1.102-.121 2.15-.439 3.103-.921l2.604 2.603c.389.389 1.025.389 1.414 0s.389-1.025 0-1.414z" fill="#6b7280" fill-rule="evenodd"/></svg>

<svg width="24" height="24" viewBox="0 0 24 24" fill="none" xmlns="http://www.w3.org/2000/svg">
<g id="Icon/Outline/eye-off-2">
<path id="Mask" fill-rule="evenodd" clip-rule="evenodd" d="M17.8092 13.395C19.5142 11.978 20.6992 9.95298 20.9922 7.62398C21.0612 7.07698 20.6732 6.57698 20.1242 6.50798C19.5842 6.43398 19.0762 6.82698 19.0082 7.37498C18.5692 10.867 15.5562 13.5 12.0002 13.5C8.44419 13.5 5.43119 10.867 4.99219 7.37498C4.92419 6.82698 4.41419 6.43798 3.87519 6.50798C3.32719 6.57698 2.93919 7.07698 3.00819 7.62398C3.30119 9.95298 4.48619 11.978 6.19119 13.395L3.87919 15.707C3.49019 16.096 3.49019 16.732 3.87919 17.121C4.26719 17.51 4.90419 17.51 5.29319 17.121L7.89619 14.518C8.85019 15 9.89719 15.318 11.0002 15.439V19C11.0002 19.55 11.4502 20 12.0002 20C12.5502 20 13.0002 19.55 13.0002 19V15.439C14.1022 15.318 15.1502 15 16.1032 14.518L18.7072 17.121C19.0962 17.51 19.7322 17.51 20.1212 17.121C20.5102 16.732 20.5102 16.096 20.1212 15.707L17.8092 13.395Z" fill="#000000"/>
</g>
</svg>
